IMB-X-Files/The-Ambassadors-Assets/6616e2edf7970807d8e222b7_dtc-logo.svg

<svg fill="none" height="53" viewBox="0 0 243 53" width="243" xmlns="http://www.w3.org/2000/svg"><g fill="#fff"><path d="m108.267 14.5296c-.798-.7333-1.745-1.2906-2.845-1.6749-1.1-.3813-2.297-.5808-3.587-.5984l-8.539.0059h-.8858v5.8342h6.1451l3.1797-.0029c.892 0 1.61.261 2.153.7773.542.5191.812 1.3023.812 2.3553v9.6474c0 .877-.267 1.6103-.8 2.1999-.534.5896-1.256.8858-2.165.8858h-3.1797v-10.8294h-6.1451v15.5314 1.1381h1.5194v-.0059h7.9284c1.291-.0147 2.482-.2141 3.576-.5984 1.091-.3842 2.035-.9445 2.833-1.6866s1.423-1.6514 1.877-2.7249c.455-1.0765.681-2.3231.681-3.7428v-10.0786c0-1.402-.229-2.6428-.681-3.7193-.454-1.0765-1.079-1.9799-1.877-2.7132z"/><path d="m124.521 12.2681h-5.289-6.119v5.9925h5.714l-.02 20.1982v1.3405h.689s.018.0058.029.0058h4.688s.02-.0058.029-.0058h.68v-.8272c0-.0205.006-.0323.006-.0528l.021-20.6587h5.69v-5.9925z"/><path d="m139.264 19.3666c.144-.3578.347-.6717.608-.9415.264-.2699.577-.484.941-.6453.367-.1584.78-.2376 1.241-.2376.46 0 .851.088 1.217.261.367.176.675.4048.93.6923.255.2874.449.6101.584.965.135.3579.202.7274.202 1.1088l.047 2.0532h5.966v-2.2703c0-1.0824-.179-2.1383-.537-3.1737-.357-1.0325-.897-1.9565-1.622-2.769-.724-.8096-1.642-1.4637-2.757-1.9565-1.114-.4927-2.434-.7391-3.96-.7391-1.367 0-2.616.2141-3.745.6453-1.13.4282-2.098 1.0266-2.898 1.7892-.804.7627-1.429 1.6661-1.875 2.7074s-.668 2.1676-.668 3.3761v11.5364c0 1.3199.243 2.5108.727 3.5668.484 1.0589 1.144 1.9535 1.98 2.6839.836.7303 1.81 1.2935 2.921 1.6836 1.115.3902 2.3.5838 3.555.5838 1.256 0 2.429-.1936 3.52-.5838 1.088-.3901 2.042-.9503 2.851-1.6836.813-.7304 1.338-1.3728 1.807-2.4229.47-1.0501.698-2.3993.698-3.7369v-2.6457h-5.966l-.044 2.2849c0 .3989-.067.7803-.202 1.1469-.135.3667-.238.6013-.493.8858-.255.2875-.566.5134-.93.6806-.366.1672-.78.2493-1.241.2493-.46 0-.882-.0821-1.264-.2493-.381-.1672-.707-.3931-.98-.6806-.269-.2874-.478-.613-.621-.9796-.144-.3667-.214-.748-.214-1.144v-10.9174c0-.396.07-.7744.214-1.1323z"/></g></svg>

<svg width="243" height="53" viewBox="0 0 243 53" fill="none" xmlns="http://www.w3.org/2000/svg">
<path d="M108.267 14.5296C107.469 13.7963 106.522 13.239 105.422 12.8547C104.322 12.4734 103.125 12.2739 101.835 12.2563L93.296 12.2622H92.4102V18.0964H98.5553L101.735 18.0935C102.627 18.0935 103.345 18.3545 103.888 18.8708C104.43 19.3899 104.7 20.1731 104.7 21.2261V30.8735C104.7 31.7505 104.433 32.4838 103.9 33.0734C103.366 33.663 102.644 33.9592 101.735 33.9592H98.5553V23.1298H92.4102V38.6612V39.7993H93.9296V39.7934H101.858C103.149 39.7787 104.34 39.5793 105.434 39.195C106.525 38.8108 107.469 38.2505 108.267 37.5084C109.065 36.7663 109.69 35.857 110.144 34.7835C110.599 33.707 110.825 32.4604 110.825 31.0407V20.9621C110.825 19.5601 110.596 18.3193 110.144 17.2428C109.69 16.1663 109.065 15.2629 108.267 14.5296Z" fill="white"/>
<path d="M124.521 12.2681H119.232H113.113V18.2606H118.827L118.807 38.4588V39.7993H119.496C119.496 39.7993 119.514 39.8051 119.525 39.8051H124.213C124.213 39.8051 124.233 39.7993 124.242 39.7993H124.922V38.9721C124.922 38.9516 124.928 38.9398 124.928 38.9193L124.949 18.2606H130.639V12.2681H124.521Z" fill="white"/>
<path d="M139.264 19.3666C139.408 19.0088 139.611 18.6949 139.872 18.4251C140.136 18.1552 140.449 17.9411 140.813 17.7798C141.18 17.6214 141.593 17.5422 142.054 17.5422C142.514 17.5422 142.905 17.6302 143.271 17.8032C143.638 17.9792 143.946 18.208 144.201 18.4955C144.456 18.7829 144.65 19.1056 144.785 19.4605C144.92 19.8184 144.987 20.1879 144.987 20.5693L145.034 22.6225H151V20.3522C151 19.2698 150.821 18.2139 150.463 17.1785C150.106 16.146 149.566 15.222 148.841 14.4095C148.117 13.5999 147.199 12.9458 146.084 12.453C144.97 11.9603 143.65 11.7139 142.124 11.7139C140.757 11.7139 139.508 11.928 138.379 12.3592C137.249 12.7874 136.281 13.3858 135.481 14.1484C134.677 14.9111 134.052 15.8145 133.606 16.8558C133.16 17.8971 132.938 19.0234 132.938 20.2319V31.7683C132.938 33.0882 133.181 34.2791 133.665 35.3351C134.149 36.394 134.809 37.2886 135.645 38.019C136.481 38.7493 137.455 39.3125 138.566 39.7026C139.681 40.0928 140.866 40.2864 142.121 40.2864C143.377 40.2864 144.55 40.0928 145.641 39.7026C146.729 39.3125 147.683 38.7523 148.492 38.019C149.305 37.2886 149.83 36.6462 150.299 35.5961C150.769 34.546 150.997 33.1968 150.997 31.8592V29.2135H145.031L144.987 31.4984C144.987 31.8973 144.92 32.2787 144.785 32.6453C144.65 33.012 144.547 33.2466 144.292 33.5311C144.037 33.8186 143.726 34.0445 143.362 34.2117C142.996 34.3789 142.582 34.461 142.121 34.461C141.661 34.461 141.239 34.3789 140.857 34.2117C140.476 34.0445 140.15 33.8186 139.877 33.5311C139.608 33.2437 139.399 32.9181 139.256 32.5515C139.112 32.1848 139.042 31.8035 139.042 31.4075V20.4901C139.042 20.0941 139.112 19.7157 139.256 19.3578L139.264 19.3666Z" fill="white"/>
</svg>
